X: 63
M: 4/4
L: 1/8
K: C
[G2G,2]BB A2G2 | E2G2 [c4E4] | [G2G,2]Bc d2c2 | ((3BcB) A2 G4- |
[G2G,2]"a."cd e2d2 | c2E2 [F4A,4] | G2Bc "b."dcBd | c2 ((3dcB) c2z2 ||
K: G
d2cc B2d2 | g2a2 b4 | a2"c."bb d'2f2 | gfga b2z2 |
d2gf e2d2 | B2d2 g2z2 | f2ga b2f2 | gfga g2z2 |]
P: Var:
"a."Bc || "b."d2B2 || "c."aa |]


